X: 1
T: Leaving of Liverpool, The
C: Trad
R: Dance Tune
L: 1/8
M: 4/4
K: D
Z: ABC transcription by Verge Roller
DE | "D" F2 FA "Bm" GFED | "G" d2 B2 "D" A2 DE | "F#m" FAAA "Bm" BAGF | "A" E2 E>F E2 DE |
"D" F2 FA "Bm" GFED | "G" d2 B2 "D" A2 DE | "F#m" FAAF "A" E3 D | "D" D6 |]
cd | "A" e2 ec A2 ce | "G" d>edB "D" A2 DE | "F#m" FAAA "Bm" BAGF | "A" E2 E>F EAAG |
"D" F2 FA "Bm" GFED | "G" d2 B2 "D" A2 DE | "F#m" FAAF "A" E3 D | "D" D6 |]
r: 16
